X: 5
T: Speed The Plough
R: reel
M: 4/4
L: 1/8
K: Amaj
E2 | A2Ac efec | eaec efec | dfdB cecA | dcBA GABC |A2Ac efec | eaec efec | dfdB cecA |cBAG A2 :||: e2 | aAaA aAce | aAgA fAeA| dfdB cecA | dcBA GABd | (3cBA eA fAeA | fgaf ecAc | decd BcAB | FAGB A2 :||


Tune 1191	Setting 1191

